!!!COM:	Martini, Johannes
!!!CDT:	~1440///-~1497//
!!!OTL:	Confitebimur tibi deus
!!!AGN:	Motet
!!!SCT:	Mar2012
!!!SCA:	Mar2012
!!!voices:	3
**kern	**kern	**kern
*staff3	*staff2	*staff1
*Ivox	*Ivox	*Ivox
*I"Tenor	*I"Faulx bourdon	*I"Superius
*I'T	*I'Fb	*I'S
*>[A,B,C,D,E,F,G,H,I,J]	*>[A,B,C,D,E,F,G,H,I,J]	*>[A,B,C,D,E,F,G,H,I,J]
*>A	*>A	*>A
*clefGv2	*clefGv2	*clefG2
*k[b-]	*k[]	*k[]
*M2/1	*M2/1	*M2/1
*met(C)	*met(C)	*met(C)
=1-	=1-	=1-
!!LO:TX:Z=8:t=Choir 1
!!section: Confitebimur, et
!!!OMD: Confitebimur, et
2G/	2d\	2g/
2G/	2d\	2g/
2G/	2d\	2g/
2G/	2d\	2g/
=2	=2	=2
1B-	1d	1g
1B-	1d	1g
=3	=3	=3
2B-\	2d\	2g/
2B-\	2d\	2g/
2B-\	2d\	2g/
2B-\	2d\	2g/
=4	=4	=4
1B-	1d	1g
1c	1e	1a
=5	=5	=5
2A/	2e\	2a/
1B-	1d	1g
2A/	[2c\	[2f/
=6	=6	=6
1G	2c\]	2f/]
.	2B\	2e/
1Fl	1cl	1fl
=7||	=7||	=7||
*>B	*>B	*>B
!!LO:TX:Z=8:t=Choir 2
!!section: Narabimus mirabilia
!!!OMD: Narabimus mirabilia
1G	0r	1g
2B-\	.	2g/
2B-\	.	2g/
=8	=8	=8
1B-	0r	1g
2A/	.	2f/
2B-\	.	2g/
=9	=9	=9
2c\	0r	2a/
1d	.	1b-i
2c\	.	[2a/
=10	=10	=10
1B-	0r	2a/]
.	.	2g/
1A	.	1a
=11	=11	=11
1r	0r	1r
1B-	.	1g
=12	=12	=12
1B-	0r	1g
2B-\	.	2g/
2B-\	.	2g/
=13	=13	=13
2B-\	0r	2g/
2B-\	.	2g/
1B-	.	1g
=14	=14	=14
1B-	0r	1g
2B-\	.	2g/
2B-\	.	2g/
=15	=15	=15
2A/	0r	2f/
2A/	.	2f/
1B-	.	1g
=16	=16	=16
1c	0r	1a
2A/	.	2a/
[2B-\	.	[2g/
=17	=17	=17
2B-\]	0r	2g/]
2A/	.	1f
1G	.	.
.	.	2e/
=18	=18	=18
0Fl	0r	0fl
=19||	=19||	=19||
*>C	*>C	*>C
!!section: Liquefacta est
!!!OMD: Liquefacta est
!!LO:TX:Z=8:t=Choir 1
1G	1d	1g
1B-	1d	1g
=20	=20	=20
2B-\	2d\	2g/
2B-\	2d\	2g/
2B-\	2d\	2g/
2B-\	2d\	2g/
=21	=21	=21
1B-	1d	1g
2B-\	2d\	2g/
2B-\	2d\	2g/
=22	=22	=22
1B-	1d	1g
2B-\	2d\	2g/
2c\	2e\	2a/
=23	=23	=23
1d	1f	1b-i
2c\	2e\	2a/
2A/	[2e\	[2a/
=24	=24	=24
1B-	2e\]	2a/]
.	2d\	2g/
1A	1e	1a
=25	=25	=25
1r	1r	1r
1B-	1d	1g
=26	=26	=26
2B-\	2d\	2g/
2B-\	2d\	2g/
2B-\	2d\	2g/
2B-\	2d\	2g/
=27	=27	=27
1B-	1d	1g
1B-	1d	1g
=28	=28	=28
1c	1e	1a
2A/	2e\	2a/
[2B-\	[2d\	[2g/
=29	=29	=29
2B-\]	2d\]	2g/]
2A/	1c	1f
1G	.	.
.	2B\	2e/
=30	=30	=30
0Fl	0cl	0fl
=31||	=31||	=31||
*>D	*>D	*>D
!!section: Dixi iniquis
!!!OMD: Dixi iniquis
!!LO:TX:Z=8:t=Choir 2
1G	0r	1g
1B-	.	1g
=32	=32	=32
2B-\	0r	2g/
2B-\	.	2g/
1B-	.	1g
=33	=33	=33
2B-\	0r	2g/
2B-\	.	2g/
1B-	.	1g
=34	=34	=34
1B-	0r	1g
1d	.	1b-i
=35	=35	=35
2c\	0r	2a/
2A/	.	1a
1B-	.	.
.	.	2g/
=36	=36	=36
1A	0r	1a
1r	.	1r
=37	=37	=37
1B-	0r	1g
2B-\	.	2g/
2B-\	.	2g/
=38	=38	=38
2A/	0r	2f/
2A/	.	2f/
1G	.	1g
=39	=39	=39
2B-\	0r	2g/
2B-\	.	2g/
1B-	.	1g
=40	=40	=40
2B-\	0r	2g/
2A/	.	2f/
1B-	.	1g
=41	=41	=41
1c	0r	1a
2A/	.	2a/
[2B-\	.	[2g/
=42	=42	=42
2B-\]	0r	2g/]
2A/	.	1f
1G	.	.
.	.	2e/
=43	=43	=43
0Fl	0r	0fl
=44||	=44||	=44||
*>E	*>E	*>E
!!LO:TX:Z=8:t=Choir 1
!!section: Nolite extollere
!!!OMD: Nolite extollere
1G	1d	1g
1B-	1d	1g
=45	=45	=45
2B-\	2d\	2g/
2B-\	2d\	2g/
2B-\	2d\	2g/
2B-\	2d\	2g/
=46	=46	=46
1B-	1d	1g
2B-\	2d\	2g/
2B-\	2d\	2g/
=47	=47	=47
1B-	1d	1g
2c\	2e\	2a/
[2d\	[2f\	[2b-i\
=48	=48	=48
2d\]	2f\]	2b-\]
2c\	1e	1a
1B-	.	.
.	2d\	2g/
=49	=49	=49
1A	1e	1a
1r	1r	1r
=50	=50	=50
2B-\	2d\	2g/
2B-\	2d\	2g/
2B-\	2d\	2g/
2B-\	2d\	2g/
=51	=51	=51
1B-	1d	1g
2B-\	2d\	2g/
2B-\	2d\	2g/
=52	=52	=52
1B-	2d\	2g/
.	2d\	2g/
1B-	1d	1g
=53	=53	=53
1c	1.e	1.a
2A/	.	.
[2B-\	[2d\	[2g/
=54	=54	=54
2B-\]	2d\]	2g/]
2A/	1c	1f
1G	.	.
.	2B\	2e/
=55	=55	=55
0Fl	0cl	0fl
=56||	=56||	=56||
*>F	*>F	*>F
!!LO:TX:Z=8:t=Choir 2
!!section: Quia neque
!!!OMD: Quia neque
1G	0r	1g
1B-	.	1g
=57	=57	=57
2B-\	0r	2g/
2B-\	.	2g/
2B-\	.	2g/
2B-\	.	2g/
=58	=58	=58
2B-\	0r	2g/
2B-\	.	2g/
1B-	.	1g
=59	=59	=59
2B-\	0r	2g/
2B-\	.	2g/
1B-	.	1g
=60	=60	=60
2B-\	0r	2g/
2B-\	.	2g/
1B-	.	1g
=61	=61	=61
1A	0r	1f
1B-	.	2r
.	.	2g/
=62	=62	=62
2B-\	0r	2g/
2B-\	.	2g/
2B-\	.	2g/
2B-\	.	2g/
=63	=63	=63
2c\	0r	2a/
1d	.	1b-i
2c\	.	[2a/
=64	=64	=64
1B-	0r	2a/]
.	.	2g/
1A	.	1a
=65	=65	=65
1r	0r	1r
2B-\	.	2g/
2B-\	.	2g/
=66	=66	=66
2B-\	0r	2g/
2B-\	.	2g/
1B-	.	1g
=67	=67	=67
1c	0r	1.a
2A/	.	.
[2B-\	.	[2g/
=68	=68	=68
2B-\]	0r	2g/]
2A/	.	1f
1G	.	.
.	.	2e/
=69	=69	=69
0Fl	0r	0fl
=70||	=70||	=70||
*>G	*>G	*>G
!!section: Hunc humiliat
!!!OMD: Hunc humiliat
!!LO:TX:Z=8:t=Choir 1
1G	1d	1g
1B-	1d	1g
=71	=71	=71
2B-\	2d\	2g/
2B-\	2d\	2g/
1B-	1d	1g
=72	=72	=72
1B-	1d	1g
2c\	2e\	2a/
[2d\	[2f\	[2b-i\
=73	=73	=73
2d\]	2f\]	2b-\]
2c\	1e	1a
1B-	.	.
.	2d\	2g/
=74	=74	=74
1A	1e	1a
1r	1r	1r
=75	=75	=75
2B-\	2d\	2g/
2B-\	2d\	2g/
1B-	1d	1g
=76	=76	=76
1B-	1d	1g
1G	1d	1g
=77	=77	=77
2B-\	2d\	2g/
2B-\	2d\	2g/
2B-\	2d\	2g/
2B-\	2d\	2g/
=78	=78	=78
1B-	1d	1g
2A/	2c\	2f/
2G/	2B\	2e/
=79	=79	=79
1A	1c	1f
1B-	1d	1g
=80	=80	=80
1c	1e	1a
2A/	2e\	2a/
[2B-\	[2d\	[2g/
=81	=81	=81
2B-\]	2d\]	2g/]
2A/	1c	1f
1G	.	.
.	2B\	2e/
=82	=82	=82
0Fl	0cl	0fl
=83||	=83||	=83||
*>H	*>H	*>H
!!LO:TX:Z=8:t=Choir 2
!!section: Et inclinavit
!!!OMD: Et inclinavit
1G	0r	1g
1B-	.	1g
=84	=84	=84
2B-\	0r	2g/
2B-\	.	2g/
1B-	.	1g
=85	=85	=85
1c	0r	1a
2B-\	.	2g/
2A/	.	[2f/
=86	=86	=86
1G	0r	2f/]
.	.	2e/
1F	.	1f
=87	=87	=87
1r	0r	1r
1B-	.	1g
=88	=88	=88
2B-\	0r	2g/
2B-\	.	2g/
1B-	.	1g
=89	=89	=89
2B-\	0r	2g/
2B-\	.	2g/
1B-	.	1g
=90	=90	=90
1A	0r	1f
1A	.	1f
=91	=91	=91
1B-	0r	1g
2c\	.	2a/
[2d\	.	[2b-i\
=92	=92	=92
2d\]	0r	2b-\]
2c\	.	1a
1B-	.	.
.	.	2g/
=93	=93	=93
1A	0r	1a
1r	.	1r
=94	=94	=94
2B-\	0r	2g/
2B-\	.	2g/
1B-	.	1g
=95	=95	=95
1B-	0r	1g
2A/	.	2f/
2B-\	.	2g/
=96	=96	=96
2.c\	0r	1.a
4B-\	.	.
4A/	.	.
4G/	.	.
[2B-\	.	[2g/
=97	=97	=97
2B-\]	0r	2g/]
2A/	.	1f
1G	.	.
.	.	2e/
=98	=98	=98
0Fl	0r	0fl
=99||	=99||	=99||
*>I	*>I	*>I
!!LO:TX:Z=8:t=Choir 1
!!section: Ego autem
!!!OMD: Ego autem
1G	1d	1g
2B-\	2d\	2g/
2B-\	2d\	2g/
=100	=100	=100
1B-	1d	1g
2B-\	2d\	2g/
2B-\	2d\	2g/
=101	=101	=101
2B-\	2d\	2g/
2B-\	2d\	2g/
1B-	1d	1g
=102	=102	=102
2c\	2e\	2a/
1d	1f	1b-i
2c\	[2e\	[2a/
=103	=103	=103
1B-	2e\]	2a/]
.	2d\	2g/
1A	1e	1a
=104	=104	=104
1r	1r	1r
2B-\	2d\	2g/
2B-\	2d\	2g/
=105	=105	=105
1B-	1d	1g
1c	1e	1a
=106	=106	=106
2A/	2e\	2a/
1B-	1d	1g
2A/	[2c\	[2f/
=107	=107	=107
1G	2c\]	2f/]
.	2B\	2e/
1Fl	1cl	1fl
=108||	=108||	=108||
*>J	*>J	*>J
!!LO:TX:Z=8:t=Choir 2
!!section: Et omnia cornua
!!!OMD: Et omnia cornua
1G	0r	1g
2B-\	.	2g/
2B-\	.	2g/
=109	=109	=109
1B-	0r	1g
2B-\	.	2g/
2B-\	.	2g/
=110	=110	=110
1B-	0r	1g
2A/	.	2f/
2B-\	.	2g/
=111	=111	=111
2c\	0r	2a/
1d	.	1b-i
2c\	.	[2a/
=112	=112	=112
1B-	0r	2a/]
.	.	2g/
1A	.	1a
=113	=113	=113
1r	0r	1r
1B-	.	1g
=114	=114	=114
2B-\	0r	2g/
2B-\	.	2g/
2B-\	.	2g/
2B-\	.	2g/
=115	=115	=115
1B-	0r	1g
1c	.	1a
=116	=116	=116
2B-\	0r	2g/
2G/	.	2e/
2A/	.	2f/
[2B-\	.	[2g/
=117	=117	=117
2B-\]	0r	2g/]
2A/	.	1f
1G	.	.
.	.	2e/
=118	=118	=118
0Fl	0r	0fl
==	==	==
*-	*-	*-
!!!RDF**kern: l=long note in original notation
!!!RDF**kern: i=editorial accidental
!!!ENC:	Chris Gage 08-07-2014
!!!END:	2014/10/07/
!!!EED:	Jesse Rodin
!!!EEV:	2014/10/16/
!!!ONB:	Translated from MusicXML and edited on 2014/10/16/ by Craig Sapp
!!muse2ps: C^@{COM}^i2I150v85,85,150Q16
